ui/StatusQ/src/assets/img/icons/arrow-right-btn-inactive.svg

<svg fill="none" height="44" viewBox="0 0 44 44" width="44" xmlns="http://www.w3.org/2000/svg"><circle cx="22" cy="22" fill="#eef2f5" r="22"/><path d="m23.7145 15.6187c-.3418-.3417-.3418-.8957 0-1.2374.3417-.3417.8957-.3417 1.2374 0l7 7c.3417.3417.3417.8957 0 1.2374l-7 7c-.3417.3417-.8957.3417-1.2374 0-.3418-.3417-.3418-.8957 0-1.2374l4.5104-4.5105c.3675-.3675.1072-.9958-.4125-.9958h-15.1459c-.4832 0-.875-.3918-.875-.875s.3918-.875.875-.875h15.1459c.5197 0 .78-.6283.4125-.9958z" fill="#939ba1"/></svg>

<svg width="44" height="44" viewBox="0 0 44 44" fill="none" xmlns="http://www.w3.org/2000/svg">
<circle cx="22" cy="22" r="22" fill="#EEF2F5"/>
<path d="M23.7145 15.6187C23.3727 15.277 23.3727 14.723 23.7145 14.3813C24.0562 14.0396 24.6102 14.0396 24.9519 14.3813L31.9519 21.3813C32.2936 21.723 32.2936 22.277 31.9519 22.6187L24.9519 29.6187C24.6102 29.9604 24.0562 29.9604 23.7145 29.6187C23.3727 29.277 23.3727 28.723 23.7145 28.3813L28.2249 23.8708C28.5924 23.5033 28.3321 22.875 27.8124 22.875H12.6665C12.1833 22.875 11.7915 22.4832 11.7915 22C11.7915 21.5168 12.1833 21.125 12.6665 21.125H27.8124C28.3321 21.125 28.5924 20.4967 28.2249 20.1292L23.7145 15.6187Z" fill="#939BA1"/>
</svg>
